X:1
T: Edelweiss
M: 4/4
L: 1/4
Q:1/4=160
K:C
D3 F | C'4| _B3 F | _E4 | D4 | D D _E  F | G4| F4 |
D3 F | C'4| _B3 F | _E4 | [FD]4 | F F G A | [D_B]4| [D_B]4 |
C'3 F | F  A G F | [FD]3 F | [D_B]4 |  [_B,G]3 _B | [_EC']3 _B | [CA]4 | [A,F]4|
[_BD]3 F | [_EC']4| [D_B]3 F | [G_E]4 | [FD]4 |F F G A | [D_B]4| [D_B]4 |
